!!!OTL: Naturstudien.
!!!OTL-incipit: AUF IHR BRUEDER FRISCH UND FROH
!!!COM: J. Hopfe
!!!ARE: Europa, Mitteleuropa, Deutschland
!!!SCT: F0553
!!!TXL: @@DE
!!!YEM: Copyright 1995, estate of Helmut Schaffrath.
**kern	**text
*ICvox	*
*M4/4	*
*met(c)	*
*k[f#c#]	*
*D:	*
=1	=1
!LO:TX:a:t=Munter.	!
{4.d	1._Auf,
8e	ihr
4f#	Brü-
4g	-der
=2	=2
4a	friſch
4f#	und
2b}	froh!
=3	=3
{4.a	nehmt
8a	die
4b	Ʒie-
4cc#	-gen-
=4	=4
2dd	-hai-
4d	-ner,
4r}	.
=5	=5
{4.d	laßt
8e	Sa-
4f#	-lut
4g	und
=6	=6
4a	Ci-
4f#	-ce-
2dd}	-ro,
=7	=7
{4.a	laſ-
8a	-ſet
4g#	die
4b	La-
=8	=8
2b	-tei-
4a	-ner!
4r}	.
=9	=9
{4b/	Laßt
4a	die
4g	Grie-
4a	-chen
=10	=10
4.b/	all-
8a	-ʒu-
4g	-mal,
4r}	.
=11	=11
{4a	wol-
4g	-len
4f#	auch
4g	durch
=12	=12
4.a	Wald
8g	und
4f#	Thal
4r}	.
=13	=13
{4.d	lu-
8f#	-ſtig
4a	pro-
4dd	-me-
=14	=14
2dd	-ni-
4b	-ren,
4r}	.
=15	=15
{4a	dort,
4a	ja
4b/	dort
4g	ſtu-
=16	=16
2e	-di-
4d	-ren.
4r}	.
==	==
!!!AGN: Studenten -, Wander - Lied
!!!ONB: ESAC (Essen Associative Code) Database: FINK
!!!AMT: simple quadruple
!!!AIN: vox
!!!EED: Helmut Schaffrath
!!!EEV: 1.0
!!!GTL: Studentenlieder
!!Text: A. Woncke??
!!!source: Musikalischer Hausschatz der Deutschen. Eine Sammlung von über 1000 Liedern und Gesängen mit Singstimmen und Klavierbegleitung. Leipzig, Litterarisches Verlags-Haus.
!!!page: 357
!!!ENC: Anna Maria Matuszewska
!!!EEV: 2025/03/18
*-	*-
